src/pos-icons/pencil-box-outline.svg

<svg height="24" viewBox="0 0 24 24" width="24" xmlns="http://www.w3.org/2000/svg"><path d="m19 19v-14h-14v14zm0-16a2 2 0 0 1 2 2v14c0 1.11-.9 2-2 2h-14a2 2 0 0 1 -2-2v-14a2 2 0 0 1 2-2zm-2.3 6.35-1 1-2.05-2.05 1-1c.21-.22.56-.22.77 0l1.28 1.28c.22.21.22.56 0 .77m-9.7 5.59 6.06-6.06 2.06 2.06-6.06 6.06h-2.06z"/></svg>

<?xml version="1.0" encoding="UTF-8"?><!DOCTYPE svg PUBLIC "-//W3C//DTD SVG 1.1//EN" "http://www.w3.org/Graphics/SVG/1.1/DTD/svg11.dtd"><svg xmlns="http://www.w3.org/2000/svg" xmlns:xlink="http://www.w3.org/1999/xlink" version="1.1" id="mdi-pencil-box-outline" width="24" height="24" viewBox="0 0 24 24"><path d="M19,19V5H5V19H19M19,3A2,2 0 0,1 21,5V19C21,20.11 20.1,21 19,21H5A2,2 0 0,1 3,19V5A2,2 0 0,1 5,3H19M16.7,9.35L15.7,10.35L13.65,8.3L14.65,7.3C14.86,7.08 15.21,7.08 15.42,7.3L16.7,8.58C16.92,8.79 16.92,9.14 16.7,9.35M7,14.94L13.06,8.88L15.12,10.94L9.06,17H7V14.94Z" /></svg>
